img/logo_modal.svg

<svg xmlns="http://www.w3.org/2000/svg" width="130.35" height="128.21" viewBox="0 0 130.35 128.21"><style>.st0{fill:#fff}</style><path class="st0" d="M27.12 38.43v43.01H6.54V38.43H0V87.5h31.75v2.58h6.21v-8.64H33.6V38.43zM63.49 82.7c-10.25 0-18.6-8.35-18.6-18.6 0-10.25 8.35-18.59 18.6-18.59 4.95 0 9.44 1.96 12.77 5.13l4.91-4.93c-4.58-4.41-10.81-7.14-17.68-7.14-14.1 0-25.53 11.43-25.53 25.53 0 14.1 11.43 25.53 25.53 25.53 6.89 0 13.13-2.74 17.72-7.17l-4.91-4.93c-3.34 3.19-7.84 5.17-12.81 5.17"/><path class="st0" d="M62.91 64.1l-.04-.03-.03.03zm-.04-.03l.04-.04h-.07zm57.53 17.37l-11.75-34.81-11.76 34.81zm-15.06-43.01h6.54l14.79 43.01h3.68v8.64h-6.34V87.5H93.28v2.58h-6.34v-8.64h3.61z"/><path d="M19.77 26.5A57.627 57.627 0 0163.49 6.44c14.31 0 27.99 5.3 38.51 14.74H63.49l-6.42 6.44h59.6l-4.58-5.32A64.074 64.074 0 0063.49 0C44.8 0 27.09 8.13 14.88 22.3l-4.58 5.28h8.52z" fill="#8dc124"/><path d="M107.21 101.7c-10.98 12.75-26.91 20.07-43.72 20.07a57.59 57.59 0 01-38.51-14.75h38.51l6.42-6.44H10.3l4.58 5.32c12.21 14.18 29.92 22.31 48.61 22.31 18.69 0 36.4-8.13 48.6-22.31l4.58-5.28h-8.51z" fill="#008937"/></svg>

<svg xmlns="http://www.w3.org/2000/svg" width="130.35" height="128.21" viewBox="0 0 130.35 128.21"><style type="text/css">.st2{fill:#008937;}
		.st1{fill:#8dc124;}
		.st0{fill:#ffffff;}</style><path class="st0" d="M27.12,38.43L27.12,81.44L6.54,81.44L6.54,38.43L0,38.43L0,87.5L31.75,87.5L31.75,90.08L37.96,90.08L37.96,81.44L33.6,81.44L33.6,38.43Z"/><path class="st0" d="M63.49,82.7C53.24,82.7 44.89,74.35 44.89,64.1C44.89,53.85 53.24,45.51 63.49,45.51C68.44,45.51 72.93,47.47 76.26,50.64L81.17,45.71C76.59,41.3 70.36,38.57 63.49,38.57C49.39,38.57 37.96,50 37.96,64.1C37.96,78.2 49.39,89.63 63.49,89.63C70.38,89.63 76.62,86.89 81.21,82.46L76.3,77.53C72.96,80.72 68.46,82.7 63.49,82.7"/><path class="st0" d="M62.91,64.1L62.87,64.07L62.84,64.1Z"/><path class="st0" d="M62.87,64.07L62.91,64.03L62.84,64.03Z"/><path class="st0" d="M120.4,81.44L108.65,46.63L96.89,81.44ZM105.34,38.43L111.88,38.43L126.67,81.44L130.35,81.44L130.35,90.08L124.01,90.08L124.01,87.5L93.28,87.5L93.28,90.08L86.94,90.08L86.94,81.44L90.55,81.44Z"/><path class="st1" d="M19.77,26.5C30.74,13.75 46.68,6.44 63.49,6.44C77.8,6.44 91.48,11.74 102,21.18L63.49,21.18L57.07,27.62L116.67,27.62L112.09,22.3C99.89,8.13 82.18,0 63.49,0C44.8,0 27.09,8.13 14.88,22.3L10.3,27.58L18.82,27.58Z"/><path class="st2" d="M107.21,101.7C96.23,114.45 80.3,121.77 63.49,121.77C49.18,121.77 35.5,116.47 24.98,107.02L63.49,107.02L69.91,100.58L10.3,100.58L14.88,105.9C27.09,120.08 44.8,128.21 63.49,128.21C82.18,128.21 99.89,120.08 112.09,105.9L116.67,100.62L108.16,100.62Z"/></svg>
